X: 18708
T: I'se The Bye
R: jig
M: 6/8
K: Dmajor
D2F A2A|BcB A2F|D2F AFD|E3 EFE|
D2F A2A|BcB A2F|Bcd e2c|1 d3 d3:|2 d3 d2e||
f2f fgf|e2c A3|f2f fef|g3 a2g|
f2f fgf|e2c A3|Bcd e2c|1 d3 d2e:|2 d3 d3||

